!! 00000] TT[WS
!!!OTL: Zanerren changqu yiduidui
!!!ARE: Asia, China, Shanxi Hequ
!! Ethnic Group: Han
!! WII, 13 (2)
!!!SCT: J0414
!!!YEM: Copyright 1995, estate of Helmut Schaffrath.
**kern
*ICvox
*Ivox
*M2/4
*k[b-e-a-d-g-]
*D-:
{8b-
8a-
16b-
16ee-
16dd-
16b-
=1
8a-
16a-
16dd-
8b-
16a-
16f
=2
8e-
8d-
16.e-
32dd-
16g-
16f
=3
2e-}
=4
{8b-
8a-
16b-
16ee-
16dd-
16b-
=5
8a-
16a-
16dd-
8b-
16a-
16f
=6
8e-
8d-
16.e-
32b-
16a-
16f
=7
2a-}
==
!!!AGN: Shange, Shanqu. Qingge, Aisu
!!!ONB: ESAC (Essen Associative Code) Database: CHINA
!!!AMT: simple duple
!!!AIN: vox
!!!EED: Helmut Schaffrath
!!!EEV: 1.0
*-
